X:1
T:Title
%%score { ( 1 4 ) | ( 2 3 ) }
L:1/8
Q:1/4=95
M:6/8
K:Eb
V:1 treble nm="Grand Piano"
V:4 treble 
V:2 bass 
V:3 bass 
V:1
 G2 G GFG | A2 G G2 F | A2 A AG[DF] | [B,GB]2 [B,FA] [B,EG]3 | [GB]2 [GB] [GB]AG | c2 c [GB]2 G | %6
w: Powell~G.~Fithian * * * *||||||
 z DG FBd | d2 c z2 A, | e2 [Ge] [GB]AG | c2 c B2 G | [Ge]2 [Ge] cd[Ge] | [FB]2 [E=A] [DB]3 | %12
w: ||||||
 .[EG]3 z3 | A2 G G2 F | d2 e BG[=A,E] | [B,EG]2 [A,DF] [G,E]3 |] %16
w: ||||
V:2
 z3 .E3 | [F,CF]2 [=A,CE] [B,E]2 [B,D] | z3 .F3[K:bass] | B,,C,D, E,3 | %4
 [E,E]2 [E,E] z[K:treble] F[E,B,E] | [A,E]2 [A,EA][K:bass] [E,E]2 [E,B,E] | %6
 .[E,B,E]2 [=E,B,_D] [F,B,=D]2 [F,B,F] | [F,=A,F]2 [F,A,E] .[B,,F,]3 | [E,G,E]2 [E,B,] z F[E,B,E] | %9
 [A,E]2 [A,E] [E,G,E]2 [E,B,E] | [C,C]2 [C,C] [E,C][D,=B,][C,C] | [F,D]2 [F,C] [B,,B,]3 | %12
 .[E,B,]2 [A,B,D] [A,B,D]2 [G,B,] | [F,CF]2 [=A,CE] [B,E]2 [B,D] | %14
 [A,B,F]2[K:bass] [G,B,E] B,,-[B,,B,]C, | B,,2 B,, E,3 |] %16
V:3
 [E,B,E]2 [G,B,E] B,-[A,B,D][G,B,E] | x6 | [B,F]2 [B,F] B,-[B,E][K:bass]B, | x6 | %4
 z3 .[E,B,]3[K:treble] | x3[K:bass] x3 | x6 | x6 | z3 .[E,B,]3 | x6 | x6 | x6 | x6 | x6 | %14
 z3[K:bass] .G,3 | x6 |] %16
V:4
 x6 | x6 | x6 | x6 | x6 | x6 | .G3 z3 | z3 [DB]3 | x6 | x6 | z3 .G3 | x6 | z B,F F2 E | x6 | %14
 z3 .E3 | x6 |] %16

